core/solid/computer-devices/play-store.svg

<svg xmlns="http://www.w3.org/2000/svg" fill="none" viewBox="0 0 14 14" id="Play-Store--Streamline-Core">
  <desc>
    Play Store Streamline Icon: https://streamlinehq.com
  </desc>
  <g id="play-store">
    <path id="Subtract" fill="#000000" fill-rule="evenodd" d="M0.352234 1.30517c0 -0.02479 0.000988 -0.04926 0.002925 -0.07341L5.98441 6.86101 0.355106 12.4903c-0.001902 -0.0239 -0.002872 -0.0482 -0.002872 -0.0727V1.30517ZM1.60955 13.3572c0.10087 -0.0192 0.20138 -0.0528 0.29879 -0.1023L8.851 9.7276 7.04507 7.92167 1.60955 13.3572Zm6.49618 -6.49619 2.15197 2.15193 2.5867 -1.31423c0.7183 -0.36496 0.7183 -1.30972 0 -1.67468l-2.5872 -1.31447 -2.15147 2.15145Zm0.7448 -2.86612L1.90834 0.46783c-0.09712 -0.049343 -0.19733 -0.082887 -0.2979 -0.102107L7.04507 5.80035l1.80546 -1.80546Z" clip-rule="evenodd" stroke-width="1"></path>
  </g>
</svg>

<svg xmlns="http://www.w3.org/2000/svg" fill="none" viewBox="0 0 14 14"><g id="play-store"><path id="Subtract" fill="#3e3e3e" fill-rule="evenodd" d="M.352 1.305c0-.025.001-.05.003-.073l5.63 5.629-5.63 5.63a.917.917 0 0 1-.003-.073V1.305ZM1.61 13.357c.1-.019.2-.053.298-.102l6.943-3.527-1.806-1.806-5.435 5.435Zm6.496-6.496 2.152 2.152 2.586-1.314c.719-.365.719-1.31 0-1.675L10.257 4.71 8.106 6.86Zm.745-2.866L1.908.468A1.122 1.122 0 0 0 1.61.366L7.045 5.8l1.806-1.805Z" clip-rule="evenodd"></path></g></svg>
